X:1
T:Herr Gott, du bist von Ewigkeit
T:Joachim a Burck
T:Source : Breitkopf & Härtel---Leipzig---R.Eitner---1898. First print : 20 Deutsche Liedlein zu 4 Stimmen---Erfurt---G.Baumann---1575. Editor : André Vierendeels (06/11/17). Notes : Original clefs : C1, C3, C3, F4 Text by Ludovico Helmbold (Christeliche Reimen) 
T:Herr Gott, du bist von Ewigkeit
T:©
T:©
C:Joachim a Burck
Z:©
%%score [ 1 [ 2 3 ] 4 ]
L:1/8
Q:1/4=120
M:4/4
K:F
V:1 treble nm="Soprano" snm="S"
V:2 treble-8 nm="Tenor 1" snm="T 1"
V:3 treble-8 nm="Tenor 2" snm="T 2"
V:4 bass nm="Bass" snm="B"
V:1
 z4 z2 d2 | B2 G2 A2 B2 | G2 G2 F4 | F2 F4 E2 | D2 G2 A4 | B4 z2 d2 | B2 G2 A2 B2 | G2 G2 F4 | %8
w: Herr|Gott, du bist von|E- wig- keit|und bleibst ohn|al- len Wan-|del. Mit|uns ver- en- dert|sich die Zeit|
w: Der|Mo- ses und der|A- a- ron|habn ih- re|Zeit re- gi-|ret; Da-|vid und Na- tan|sind da- von,|
 F2 F4 E2 | D2 G2 A4 |[M:2/4] B4 |: z2 G2 |[M:4/4] A4 A2 A2- | A2 A2 B4 | B2 B4 B2- | B2 A2 G4 | %16
w: in al- lem|Thun und Han-|del.|Wie|bald ist es|_ ge- schehn,|dass viel Men-|* schen ab-|
w: ihr kei- net|wi- der- ke-|ret.|Nach-|fol- ger ih-|* ren Stand,|has- tu, Herr,|_ oft ge-|
 A4 z2 A2 | A2 B2 c2 d2 | _e2 e2 d2 B2 | B4 A2 A2- | A2 G4 ^F2 | G2 B4 A2- | A2 A2 G4 | G6 ^F2 | %24
w: gehn, die|uns er- zo- gen|und ge- lehrt, wie|man recht lebt|_ und dich|ehrt, wie man|_ recht lebt|und dich|
w: sand, durch|sie ge- bau- et|für und für, der|Kir- chen und|_ der Stad|Thor, der Kir-|* chen und|der Stad|
 G8 :| %25
w: ehrt.|
w: Thor.|
V:2
"^2)" z4 z2 d2 |"^1)" d2 d2 d2 d2 | G2 G2 A4 | A2 B4 G2 | F2 B2 d4 | d4 z2 d2 | d2 d2 d2 d2 | %7
w: Herr|Gott, du bist von|E- wig- keit|und bleibst ohn|al- len Wan|del. Mit|uns ver- en- dert|
w: Solch|dein Ge- nad ist|wie- der- farn,|auch un- serm|Va- ter- lan-|de; die|un- ser Ju- gend|
 G2 G2 A4 | A2 B4 G2 | F2 B2 d4 |[M:2/4] d4 |: z2 d2 |[M:4/4] f4 f2 f2- | f2 f2 f4 | f2 f4 g2- | %15
w: sich die Zeit|in al- lem|Thun und Han-|del.|Wie|bald ist es|_ ge- schehn,|dass viel Men-|
w: Mei- ster warn,|sind nicht mehr|all vor- han-|den.|Gib|das an ih-|* re Stat,|der wach- send|
 g2 f4 e2 | f4 z2 f2 | f2 d2 f2 f2 | _e2 c2 f2 f2 | g4 e2 f2- | f2 d2 d4 | d2 g4 e2- | e2 f2 d4 | %23
w: * schen ab-|gehn, die|uns er- zo- gen|und ge- lehrt, wie|man recht lebt|_ und dich|ehrt, wie man|_ recht lebt|
w: _ hauf Ge-|rat, das|Christ- lich Re- gi-|ment be- steh, und|Kind's Kin- dern|_ wol er-|geh, und Kind's-|* Kin- dern|
 c4 d4 | d8 :| %25
w: und dich|ehrt.|
w: wol er-|geh.|
V:3
"^3)" z4 z2 G2 |"^1)" G2 B2 A2 G2 | B2 c2 d4 | d2 d4 c2 | B2 G2 ^F4 | G4 z2 G2 | G2 B2 A2 G2 | %7
w: Herr|Gott, du bist von|E- wig- keit|und bleibst ohn|al- len Wan-|del. Mit|uns ver- en- dert|
w: Dar-|zu ver- ley uns,|lie- ber Herr,|Gott Va- ter|Glück und Se-|gen, gib|dei- nes Gei- stes|
 B2 c2 d4 | d2 d4 c2 | B2 G2 ^F4 |[M:2/4] G4 |: z2 B2 |[M:4/4] c4 c2 c2- | c2 c2 d4 | d2 d4 _e2- | %15
w: sich die Zeit|in al- lem|Thun und Han-|del.|Wie|bald ist es|_ ge- schehn,|dass viel Men-|
w: Kraft zu lehr|von Je- su|Chri- sti we-|gen.|Der|uns er- wor-|* ben hat|zeit- lich und|
 e2 c4 B2 | c4 z2 c2 | c2 B2 A2 F2 | G2 A2 B2 d2 | d4 c2 c2- | c2 B2 A4 | G2 d4 c2- | c2 d2 B4 | %23
w: * schen ab-|gehn, die|uns er- zo- gen|und ge- lehrt, wie|man recht lebt|_ und dich|ehrt, wie man|_ recht lebt|
w: _ e- wig|Gnad, dem|sey mit dir und|dei- nem Geist e-|wi- ges Lob,|_ Ehr und|Preis, e- wi-|* ges Lob,|
 G4 A4 | G8 :| %25
w: und dich|ehrt.|
w: Ehr und|Preis.|
V:4
"^4)" z4 z2 G,2 |"^1)""^1)" G,2 G,2 ^F,2 G,2 | _E,2 E,2 D,4 | D,2 B,,4 C,2 | D,2 _E,2 D,4 | %5
w: Herr|Gott, du bist von|E- wig- keit|und bleibst ohn|al- len Wan-|
 G,,4 z2 G,2 | G,2 G,2 ^F,2 G,2 | _E,2 E,2 D,4 | D,2 B,,4 C,2 | D,2 _E,2 D,4 |[M:2/4] G,,4 |: %11
w: del. Mit|uns ver- en- dert|sich die Zeit|in al- lem|Thun und Han-|del.|
 z2 G,2 |[M:4/4] F,4 F,2 F,2- | F,2 F,2 B,,4 | B,2 B,4 _E,2- | E,2 F,2 G,4 | F,4 z2 F,2 | %17
w: Wie|bald ist es|_ ge- schehn,|dass viel Men-|* schen ab-|gehn, die|
 F,2 G,2 F,2 D,2 | C,2 C,2 B,,2 B,2 | G,4 A,2 F,2- | F,2 G,2 D,4 | G,,2 G,4 A,2- | A,2 F,2 G,4 | %23
w: uns er- zo- gen|und ge- lehrt, wie|man recht lebt|_ und dich|ehrt, wie man|_ recht lebt|
 _E,4 D,4 | G,,8 :| %25
w: und dich|ehrt.|

